!! 00000] TT[00
!! NN
!!!OTL: Song liwu
!!!ARE: Asia, China,ÿJiangxi, Fuzhou
!! Ethnic Group: Han
!! IV, 250
!!!SCT: C0413
!!!YEM: Copyright 1995, estate of Helmut Schaffrath.
**kern
*ICvox
*Ivox
*M2/4
*k[b-e-]
*B-:
{4ff
4ff
=1
4dd
4ff
=2
4b-
4b-
=3
4g
8g
8b-
=4
8ff
8ff
8dd
8ff
=5
4dd
8dd
8b-
=6
4cc}
{8dd
8dd
=7
4dd
4dd
=8
8cc
8dd
8cc
8b-
=9
8b-
8b-
8b-
8dd
=10
4cc
8cc
8g
=11
8b-
8b-
8cc
8g
=12
2f}
=13
{4b-
8ff
8dd
=14
8dd
8cc
8cc
8b-
=15
8cc
8b-
8g
8f
=16
2f}
=17
{8ff
8dd
8ff
8dd
=18
4.dd
8r}
=19
{8dd
8g
8b-
8dd
=20
4cc
8cc
8b-
=21
8cc
8b-
8g
8f
=22
4f
4r}
=23
{8ff
8dd
8ff
8dd
=24
8ff
4dd}
{8dd
=25
8ff
8g
8b-
8dd
=26
4cc
8cc
8b-
=27
4f
4b-
=28
4a
4g
=29
2f}
==
!!!AGN: Wuge, Dengge, Bubeida diao. Biaoda aiqing
!! Die 3. Strophe lautet ab Phrase 8:
!!    3-613  2_21    -5_
!!    1_  -7_-6_  -5__ //
!!    Einige Verzierungen, Glissandi. Vorspiel weggelassen.
!!!ONB: ESAC (Essen Associative Code) Database: CHINA
!!!AMT: simple duple
!!!AIN: vox
!!!EED: Helmut Schaffrath
!!!EEV: 1.0
*-
